X:171
T:Hob or Nob
M:6/8
L:1/8
B:Thompson's Compleat Collection of 200 Favourite Country Dances, vol. 1 (London, 1757)
Z:Transcribed and edited by Flynn Titford-Mock, 2007
Z:abc's:AK/Fiddler's Companion
K:G
A|GBe dBG|B2B B2A|GBe dBG|ABA A2B|GBe dBG|B2d g2a|bag fed|B2 B "tr"B2:|
|:d|G2g gab|d2d d2B|g2g gab|e2e e2f|gfe gab|d2B g2a|bag fed|B2B "tr"B2:|

